gtk-icons/Papirus-GTK/16x16/actions/document-preview.svg

<?xml version="1.0" encoding="UTF-8" standalone="no"?>
<!-- Created with Inkscape (http://www.inkscape.org/) -->

<svg
   xmlns:osb="http://www.openswatchbook.org/uri/2009/osb"
   xmlns:dc="http://purl.org/dc/elements/1.1/"
   xmlns:cc="http://creativecommons.org/ns#"
   xmlns:rdf="http://www.w3.org/1999/02/22-rdf-syntax-ns#"
   xmlns:svg="http://www.w3.org/2000/svg"
   xmlns="http://www.w3.org/2000/svg"
   xmlns:sodipodi="http://sodipodi.sourceforge.net/DTD/sodipodi-0.dtd"
   xmlns:inkscape="http://www.inkscape.org/namespaces/inkscape"
   sodipodi:docname="document-preview.svg"
   inkscape:export-filename="/home/sam/source-symbolic.png"
   inkscape:export-xdpi="270"
   inkscape:export-ydpi="270"
   height="16"
   id="svg7384"
   style="enable-background:new"
   version="1.1"
   inkscape:version="0.91 r"
   width="16">
  <sodipodi:namedview
     inkscape:bbox-nodes="true"
     inkscape:bbox-paths="false"
     bordercolor="#666666"
     borderlayer="false"
     borderopacity="1"
     inkscape:current-layer="layer12"
     inkscape:cx="8.261384"
     inkscape:cy="7.2734578"
     gridtolerance="10"
     inkscape:guide-bbox="true"
     guidetolerance="10"
     id="namedview88"
     inkscape:object-nodes="true"
     inkscape:object-paths="true"
     objecttolerance="10"
     pagecolor="#f7f7f7"
     inkscape:pageopacity="0"
     inkscape:pageshadow="2"
     showborder="true"
     showgrid="false"
     showguides="true"
     inkscape:showpageshadow="false"
     inkscape:snap-bbox="true"
     inkscape:snap-bbox-edge-midpoints="false"
     inkscape:snap-bbox-midpoints="true"
     inkscape:snap-center="false"
     inkscape:snap-global="true"
     inkscape:snap-grids="false"
     inkscape:snap-intersection-paths="true"
     inkscape:snap-midpoints="true"
     inkscape:snap-nodes="true"
     inkscape:snap-object-midpoints="true"
     inkscape:snap-others="true"
     inkscape:snap-page="false"
     inkscape:snap-smooth-nodes="true"
     inkscape:snap-to-guides="false"
     inkscape:window-height="842"
     inkscape:window-maximized="1"
     inkscape:window-width="1600"
     inkscape:window-x="-4"
     inkscape:window-y="32"
     inkscape:zoom="26.24">
    <inkscape:grid
       color="#000000"
       dotted="false"
       empcolor="#0800ff"
       empopacity="0.4627451"
       empspacing="4"
       enabled="true"
       id="grid4866"
       opacity="0.16470588"
       originx="-244.0004"
       originy="-336.00672"
       snapvisiblegridlinesonly="true"
       spacingx="0.25px"
       spacingy="0.25px"
       type="xygrid"
       visible="true" />
  </sodipodi:namedview>
  <metadata
     id="metadata90">
    <rdf:RDF>
      <cc:Work
         rdf:about="">
        <dc:format>image/svg+xml</dc:format>
        <dc:type
           rdf:resource="http://purl.org/dc/dcmitype/StillImage" />
        <dc:title>Paper Symbolic Icon Theme</dc:title>
      </cc:Work>
    </rdf:RDF>
  </metadata>
  <title
     id="title8473">Paper Symbolic Icon Theme</title>
  <defs
     id="defs7386">
    <linearGradient
       id="linearGradient5606"
       osb:paint="solid">
      <stop
         id="stop5608"
         offset="0"
         style="stop-color:#000000;stop-opacity:1;" />
    </linearGradient>
  </defs>
  <g
     inkscape:groupmode="layer"
     id="layer12"
     inkscape:label="actions"
     style="display:inline"
     transform="translate(-485.0006,119.00672)">
    <g
       id="g4173">
      <g
         transform="matrix(0.99920219,0,0,0.93290213,485.0024,-119.93629)"
         id="g4149"
         style="enable-background:new">
        <g
           id="layer12-6"
           inkscape:label="actions"
           style="display:inline"
           transform="translate(-425.0004,79.003361)">
          <path
             sodipodi:nodetypes="cssccscccccccc"
             inkscape:connector-curvature="0"
             id="path4155"
             transform="matrix(1.0007984,0,0,1.0719238,424.9986,-79.078857)"
             d="M 2.84375,1.0058594 C 2.5627244,1.0495938 2,1.2397765 2,1.9394531 L 2,14.066406 C 2,14.999308 3,15 3,15 l 7.5,0 C 8.5670034,15 7,13.432997 7,11.5 7,9.5670034 8.5670034,8 10.5,8 c 1.830784,-9.41e-5 3.352312,1.4107461 3.490234,3.236328 0.002,-2.2014944 0.0035,-4.8427702 0,-6.4980468 L 9.9941406,1.0058594 3,1.0058594 c 0,0 -0.062575,-0.0145533 -0.15625,0 z M 10.5,15 Z"
             style="display:inline;opacity:0.5;fill:#000000;fill-opacity:1;stroke:none;enable-background:new" />
        </g>
      </g>
      <path
         style="color:#000000;font-style:normal;font-variant:normal;font-weight:normal;font-stretch:normal;font-size:medium;line-height:normal;font-family:Sans;-inkscape-font-specification:Sans;text-indent:0;text-align:start;text-decoration:none;text-decoration-line:none;letter-spacing:normal;word-spacing:normal;text-transform:none;direction:ltr;block-progression:tb;writing-mode:lr-tb;baseline-shift:baseline;text-anchor:start;display:inline;overflow:visible;visibility:visible;opacity:0.5;fill:#000000;fill-opacity:1;stroke:none;stroke-width:1;marker:none;enable-background:new"
         id="path27332"
         d="m 495.51935,-111.22058 c -1.4956,0 -2.71875,1.22315 -2.71875,2.71875 0,1.4956 1.22315,2.71875 2.71875,2.71875 0.4871,0 0.94729,-0.14835 1.34375,-0.375 a 0.750075,0.750075 0 0 0 0.15625,0.21875 l 1.84375,1.8125 a 0.75130096,0.75130096 0 1 0 1.0625,-1.0625 l -1.84375,-1.8125 a 0.750075,0.750075 0 0 0 -0.21875,-0.15625 c 0.22665,-0.39646 0.375,-0.85664 0.375,-1.34375 0,-1.4956 -1.22315,-2.71875 -2.71875,-2.71875 z m 0,1 c 0.95516,0 1.71875,0.76359 1.71875,1.71875 0,0.95516 -0.76359,1.71875 -1.71875,1.71875 -0.95516,0 -1.71875,-0.76359 -1.71875,-1.71875 0,-0.95516 0.76359,-1.71875 1.71875,-1.71875 z"
         inkscape:connector-curvature="0" />
    </g>
  </g>
</svg>

<?xml version="1.0" encoding="UTF-8" standalone="no"?>
<!-- Created with Inkscape (http://www.inkscape.org/) -->
<svg id="svg7384" xmlns:rdf="http://www.w3.org/1999/02/22-rdf-syntax-ns#" style="enable-background:new" xmlns="http://www.w3.org/2000/svg" xmlns:osb="http://www.openswatchbook.org/uri/2009/osb" height="16" width="16" version="1.1" xmlns:cc="http://creativecommons.org/ns#" xmlns:dc="http://purl.org/dc/elements/1.1/">
 <metadata id="metadata90">
  <rdf:RDF>
   <cc:Work rdf:about="">
    <dc:format>image/svg+xml</dc:format>
    <dc:type rdf:resource="http://purl.org/dc/dcmitype/StillImage"/>
    <dc:title>Paper Symbolic Icon Theme</dc:title>
   </cc:Work>
  </rdf:RDF>
 </metadata>
 <title id="title8473">Paper Symbolic Icon Theme</title>
 <g id="layer12" transform="translate(-485 119.01)">
  <g id="g4173">
   <g id="g4149" style="enable-background:new" transform="matrix(.99920 0 0 .93290 485 -119.94)">
    <g id="layer12-6" transform="translate(-425 79.003)">
     <path id="path4155" opacity=".5" style="enable-background:new" d="m2.8438 1.0059c-0.2811 0.0437-0.8438 0.2339-0.8438 0.9336v12.126c0 0.933 1 0.934 1 0.934h7.5c-1.933 0-3.5-1.567-3.5-3.5s1.567-3.5 3.5-3.5c1.8308-0.0000941 3.3523 1.4107 3.4902 3.2363 0.002-2.2015 0.0035-4.8428 0-6.498l-3.9959-3.7324h-6.9941s-0.062575-0.014553-0.15625 0zm7.6562 13.994z" transform="matrix(1.0008 0 0 1.0719 425 -79.079)"/>
    </g>
   </g>
   <path id="path27332" opacity=".5" style="color:#000000;text-indent:0;block-progression:tb;text-decoration-line:none;enable-background:new;text-transform:none" d="m495.52-111.22c-1.4956 0-2.7188 1.2232-2.7188 2.7188s1.2232 2.7188 2.7188 2.7188c0.4871 0 0.94729-0.14835 1.3438-0.375a0.75008 0.75008 0 0 0 0.15625 0.21875l1.8438 1.8125a0.7513 0.7513 0 1 0 1.0625 -1.0625l-1.8438-1.8125a0.75008 0.75008 0 0 0 -0.21875 -0.15625c0.22665-0.39646 0.375-0.85664 0.375-1.3438 0-1.4956-1.2232-2.7188-2.7188-2.7188zm0 1c0.95516 0 1.7188 0.76359 1.7188 1.7188 0 0.95516-0.76359 1.7188-1.7188 1.7188-0.95516 0-1.7188-0.76359-1.7188-1.7188 0-0.95516 0.76359-1.7188 1.7188-1.7188z"/>
  </g>
 </g>
</svg>
